src/assets/bg-forms/section_2-svg_3.svg

<svg width="186" height="186" viewBox="0 0 186 186" fill="none" xmlns="http://www.w3.org/2000/svg">
<g clip-path="url(#clip0_24_224)">
<path opacity="0.6" d="M73.4475 8.08916L8.10707 73.4296C-2.69667 84.2334 -2.69667 101.75 8.10707 112.553L73.4475 177.894C84.2512 188.698 101.768 188.698 112.571 177.894L177.912 112.553C188.716 101.75 188.715 84.2333 177.912 73.4296L112.571 8.08916C101.768 -2.71459 84.2513 -2.71459 73.4475 8.08916Z" fill="#6CEEC7"/>
<g opacity="0.8">
<path opacity="0.8" d="M39.8681 173.926C38.7058 173.931 37.5541 173.705 36.4799 173.261C35.4058 172.818 34.4306 172.165 33.6112 171.34L14.5562 152.285C13.7338 151.464 13.0813 150.489 12.6362 149.415C12.191 148.341 11.9619 147.191 11.9619 146.028C11.9619 144.866 12.191 143.715 12.6362 142.642C13.0813 141.568 13.7338 140.593 14.5562 139.771L33.6112 120.716C34.4324 119.894 35.4078 119.242 36.4814 118.796C37.555 118.351 38.7058 118.122 39.8681 118.122C41.0303 118.122 42.1812 118.351 43.2548 118.796C44.3284 119.242 45.3037 119.894 46.125 120.716L65.18 139.771C66.0024 140.593 66.6548 141.568 67.1 142.642C67.5451 143.715 67.7743 144.866 67.7743 146.028C67.7743 147.191 67.5451 148.341 67.1 149.415C66.6548 150.489 66.0024 151.464 65.18 152.285L46.125 171.34C45.3056 172.165 44.3304 172.818 43.2562 173.261C42.1821 173.705 41.0303 173.931 39.8681 173.926V173.926ZM39.8681 119.63C38.9087 119.624 37.9575 119.807 37.0698 120.171C36.1821 120.535 35.3755 121.072 34.6971 121.751L15.6421 140.806C14.2716 142.178 13.5019 144.037 13.5019 145.977C13.5019 147.916 14.2716 149.776 15.6421 151.148L34.6971 170.203C36.069 171.573 37.9289 172.343 39.8681 172.343C41.8072 172.343 43.6671 171.573 45.039 170.203L64.0941 151.148C65.4645 149.776 66.2343 147.916 66.2343 145.977C66.2343 144.037 65.4645 142.178 64.0941 140.806L45.039 121.751C44.3564 121.081 43.548 120.554 42.6604 120.199C41.7729 119.844 40.8239 119.669 39.8681 119.682V119.63Z" fill="#6CEEC7"/>
</g>
</g>
<defs>
<clipPath id="clip0_24_224">
<rect width="186" height="186" fill="white"/>
</clipPath>
</defs>
</svg>

<svg width="186" height="186" fill="none" xmlns="http://www.w3.org/2000/svg"><g clip-path="url(#a)"><path opacity=".6" d="M73.448 8.09 8.108 73.43c-10.805 10.803-10.805 28.32 0 39.123l65.34 65.341c10.803 10.804 28.32 10.804 39.123 0l65.341-65.341c10.804-10.803 10.803-28.32 0-39.123L112.571 8.09c-10.803-10.805-28.32-10.805-39.123 0Z" fill="#6CEEC7"/><path opacity=".8" d="M39.868 173.926a8.771 8.771 0 0 1-6.257-2.586l-19.055-19.055a8.834 8.834 0 0 1-2.594-6.257 8.837 8.837 0 0 1 2.594-6.257l19.055-19.055a8.845 8.845 0 0 1 12.514 0l19.055 19.055a8.85 8.85 0 0 1 2.594 6.257 8.843 8.843 0 0 1-2.594 6.257L46.125 171.34a8.77 8.77 0 0 1-6.257 2.586Zm0-54.296a7.233 7.233 0 0 0-5.171 2.121l-19.055 19.055a7.315 7.315 0 0 0 0 10.342l19.055 19.055a7.318 7.318 0 0 0 10.342 0l19.055-19.055a7.317 7.317 0 0 0 0-10.342L45.04 121.751a7.225 7.225 0 0 0-5.17-2.069v-.052Z" fill="#6CEEC7"/></g><defs><clipPath id="a"><path fill="#fff" d="M0 0h186v186H0z"/></clipPath></defs></svg>
